X:1
T:Get Acquainted with Jesus
T:Charles Davis Tillman
T:Get Acquainted with Jesus
T:Public Domain
T:Public Domain
C:Charles Davis Tillman
Z:Public Domain
%%score ( 1 2 ) ( 3 4 )
L:1/8
M:6/8
K:A
V:1 treble 
V:2 treble 
V:3 bass 
V:4 bass 
V:1
 [CA]/[DB]/ | [Ec][Ec][EA] [FB][FA][DF] | [CE]3 z2 [CA]/[EB]/ | [Ec][Ec][Ec] [Ec][DB][CA] | %4
w: 1.~Get ac-|quaint- ed with Je- sus, my|friend, He is|seek- ing a place in your|
w: 2.~Get ac-|quaint- ed with Je- sus, I|pray, ’Tis a|ban- quet His smile to be-|
w: 3.~Get ac-|quaint- ed with Je- sus, I|pray, Do not|wait till dis- tress brings you|
 [EB]3- [EB]2 [CA]/[DB]/ | [Ec][Ec][EA] [FB][FA][DF] | [CE]3 z2 [CE]/[CE]/ | %7
w: heart; * Let Him|come all its wan- d’rings to|end, And to|
w: hold; * Those who|trust Him, He’ll ne- ver be-|tray, And His|
w: low, * Lest a|strang- er you find Him in|need, And your|
 [CA][EA][FB] [Ec][Ec][DB] | [CA]3- [CA]2 z ||"^Refrain" [Ec]2 [CA] [CE]2 [^B,^D] | %10
w: bid pride and er- ror de-|part. *|Call Him in and|
w: love is far bet- ter than|gold. *||
w: soul know not whi- ther to|go. *||
 (^B,2 B,) [CE]2 [CE] | [CA][CA][CA] [Ec][EB][^DA] | (E2 ^D =D3) | [Ec]2 [CA] [CE]2 [^B,^D] | %14
w: know * Him, This|who is wait- ing to- day;|Call * *|in and know Him,|
w: ||||
w: ||||
 (^B,2 B,) [CE]2 [CE]/[CE]/ | [CA][CA][DB] [Ec][Ec][DB] | [CA]3- [CA]2 |] %17
w: Get * ac- quaint- ed|Je- sus, I pray. * *||
w: |||
w: |||
V:2
 x | x6 | x6 | x6 | x6 | x6 | x6 | x6 | x6 || x6 | F3 x3 | x6 | B6 | x6 | F3 x3 | x6 | x5 |] %17
w: ||||||||||friend||Him||with|||
V:3
 [A,,E,]/[A,,E,]/ | [A,,A,][A,,A,][C,A,] [D,A,][D,A,][D,A,] | [A,,A,]3 z2 [A,,E,]/[A,,E,]/ | %3
w: ~ ~|~ ~ ~ ~ ~ ~|~ ~ ~|
 [A,,A,][A,,A,][A,,A,] [A,,A,][A,,A,][A,,A,] | [E,G,]3- [E,G,]2 [A,,E,]/[A,,E,]/ | %5
w: ~ ~ ~ ~ ~ ~|~ * ~ ~|
 [A,,A,][A,,A,][C,A,] [D,A,][D,A,][D,A,] | [A,,A,]3 z2 [A,,A,]/[A,,A,]/ | %7
w: ~ ~ ~ ~ ~ ~|~ ~ ~|
 [A,,A,][C,A,][D,A,] [E,A,][E,A,][E,G,] | [A,,A,]3- [A,,A,]2 z || %9
w: ~ ~ ~ ~ ~ ~|~ *|
 [A,,A,]2 [A,,A,] [A,,A,]2 [A,,A,] | [A,,A,]2 [A,,A,] [A,,A,]2 [A,,A,] | %11
w: Call Him in and|know thy Friend, ~|
 [A,,E,][A,,E,][A,,E,] A,[G,B,][F,B,] | [E,G,]2 [F,A,] [G,B,]3 | %13
w: ~ ~ ~ ~ ~ ~|to- day; ~|
 [A,,A,]2 [A,,A,] [A,,A,]2 [A,,A,] | [A,,A,]2 [A,,A,] [A,,A,]2 A,/A,/ | %15
w: ~ ~ ~ ~|thy Friend, * * *|
 [F,A,][F,A,][F,A,] [E,A,][E,A,][E,G,] | [A,,A,]3- [A,,A,]2 |] %17
w: ||
V:4
 x | x6 | x6 | x6 | x6 | x6 | x6 | x6 | x6 || x6 | x6 | x3 A, x2 | x6 | x6 | x5 A,/A,/ | x6 | x5 |] %17
w: |||||||||||~||||||

